!!!COA:	Josquin des Prez
!!!CDT:	~1450-1521/08/27
!!!COM2: La Rue, Pierre de
!!!CDT2: ~1452///-1518/11/20/
!!!OPR:	Missa Cum iocunditate
!!!ONM:	3
!!!OTL:	Credo
!!!AGN:	Mass; Credo
!!!SCT:	NJE 3.4
!!!SCA:	New Josquin Edition 3.4
!!!voices: 4
!!!voices-OPR: 4(-5)
**kern	**kern	**kern	**kern	**kern
*staff5	*staff4	*staff3	*staff2	*staff1
*Ivox	*Ivox	*Ivox	*Ivox	*Ivox
*I"Bassus	*I"Tenor2	*I"Tenor1	*I"Altus	*I"Superius
*I'B	*I'T2	*I'T1	*I'A	*I'S
*>[A,B,C]	*>[A,B,C]	*>[A,B,C]	*>[A,B,C]	*>[A,B,C]
*>Patrem[A]	*>Patrem[A]	*>Patrem[A]	*>Patrem[A]	*>Patrem[A]
*>Incarnatus[B]	*>Incarnatus[B]	*>Incarnatus[B]	*>Incarnatus[B]	*>Incarnatus[B]
*>Crucifixus[C]	*>Crucifixus[C]	*>Crucifixus[C]	*>Crucifixus[C]	*>Crucifixus[C]
*clefF4	*clefGv2	*clefGv2	*clefG2	*clefG2
*>A	*>A	*>A	*>A	*>A
*k[]	*k[]	*k[]	*k[]	*k[]
*M3/1	*M3/1	*M3/1	*M3/1	*M3/1
*met(O)	*met(O)	*met(O)	*met(O)	*met(O)
=1-	=1-	=1-	=1-	=1-
!!section: Patrem
!!!OMD: Patrem
0D	2.A/	[0.d	0.r	1a
.	4A/	.	.	.
.	2A/	.	.	2a/
.	2A/	.	.	2a/
2D\	2.F/	.	.	2a/
2D\	.	.	.	[2f/
.	4D/	.	.	.
=2	=2	=2	=2	=2
2D\	1D	0.d]	2r	2f/]
1BB	.	.	2dd\	2d/
.	2r	.	2dd\	1d
2GG/	2d\	.	1dd	.
1GG	2d\	.	.	2r
.	[2d\	.	2dd\	2dd\
=3	=3	=3	=3	=3
2r	2d\]	1B	2dd\	2dd\
2G\	2d\	.	1b	1dd
2G\	2d\	0d	.	.
1G	1B	.	2g/	2dd\
.	.	.	1g	2dd\
2G\	2G/	.	.	[2b\
=4	=4	=4	=4	=4
2G\	0G	0.e	2r	2b\]
1E	.	.	2g/	2g/
.	.	.	2g/	1g
2C/	.	.	2.e/	.
1C	1r	.	.	2r
.	.	.	4c/	.
.	.	.	2c/	2a/
=5	=5	=5	=5	=5
2r	1r	0.d	2f/	2a/
2D\	.	.	2f/	2.f/
2D\	2d\	.	1d	.
.	.	.	.	4d/
2.BB/	2d\	.	.	1d
.	2.B\	.	[1g	.
4GG/	.	.	.	.
[2GG/	.	.	.	[2dd\
.	4G/	.	.	.
=6	=6	=6	=6	=6
2GG/]	2G/	0.r	2g/]	2dd\]
1G	1B	.	4f/	2dd\
.	.	.	4e/	.
.	.	.	1d	1g
2G\	2B\	.	.	.
[1C	[1c	.	1e	2r
.	.	.	.	[2g/
=7	=7	=7	=7	=7
1C]	1c]	0.r	2r	4g/]
.	.	.	.	8a/L
.	.	.	.	8b/J
.	.	.	2e/	2cc\
2r	1r	.	2.g/	2b\
2G\	.	.	.	2g/
.	.	.	8a/L	.
.	.	.	8b/J	.
2F\	2r	.	2cc\	2a/
[2G\	2d\	.	2b\	[2g/
=8	=8	=8	=8	=8
2G\]	2e\	0.r	2g/	4g/]
.	.	.	.	8a/L
.	.	.	.	8b/J
2F\	2f\	.	2a/	2cc\
1G	2d\	.	2.g/	2b\
.	2e\	.	.	2g/
.	.	.	8a/L	.
.	.	.	8b/J	.
2F\	2A/	.	2cc\	2a/
[2G\	[2B\	.	2b\	[2g/
=9	=9	=9	=9	=9
2G\]	2B\]	[0.d	2g/	4g/]
.	.	.	.	4f/
2F\	2A/	.	2.a/	1d
1G	2B\	.	.	.
.	.	.	4g/	.
.	2G/	.	1g	2.dd\
1D	1A	.	.	.
.	.	.	.	4cc\
.	.	.	2f#i/	2a/
=10	=10	=10	=10	=10
0.GG	0G	1d]	1g	2b\
.	.	.	.	1g
.	.	1B	1r	.
.	.	.	.	4f/
.	.	.	.	4e/
.	2r	1d	1r	1d
.	2B\	.	.	.
=11	=11	=11	=11	=11
2r	2.c\	[0.e	1g	0c
1C	.	.	.	.
.	4B\	.	.	.
.	2G/	.	2g/	.
2C/	1c	.	1g	.
2E\	.	.	.	1r
2E\	2B\	.	2g/	.
=12	=12	=12	=12	=12
2AA/	2c\	0e]	2a/	0.r
2E\	2B\	.	2b\	.
2AA/	2A/	.	2cc\	.
2E\	1c	.	2g/	.
2F\	.	1d	2a/	.
2G\	2B\	.	2b\	.
=13	=13	=13	=13	=13
1C	1e	1r	1cc	1g
0G	1d	1d	1.b	2g/
.	.	.	.	1g
.	2r	1B	.	.
.	2G/	.	4a/	2b\
.	.	.	4g/	.
=14	=14	=14	=14	=14
0D	2A/	0d	0f	2a/
.	2B\	.	.	2.dd\
.	1A	.	.	.
.	.	.	.	4cc\
.	.	.	.	2dd\
2r	2G/	[1e	1r	2b\
[2A\	[2c\	.	.	[2cc\
=15	=15	=15	=15	=15
4A\]	2c\]	1e]	0.r	4cc\]
4G\	.	.	.	4b\
2A\	2A/	.	.	2cc\
2F\	2d\	0d	.	2a/
2.G\	2G/	.	.	2.b\
.	2d\	.	.	.
4F\	.	.	.	4a/
2G\	2G/	.	.	2b\
=16	=16	=16	=16	=16
2E\	1c	0.r	1r	2g/
2.F\	.	.	.	2.a/
.	4c\	.	1r	.
4G\	4B\	.	.	4g/
2E\	4A/	.	.	1g
.	4G/	.	.	.
1D	1A	.	1a	.
.	.	.	.	2f#i/
=17	=17	=17	=17	=17
1GG	0G	0d	2b\	0g
.	.	.	1dd	.
2r	.	.	.	.
2G\	.	.	1b	.
2G\	1r	1B	.	1r
2G\	.	.	[2dd\	.
=18	=18	=18	=18	=18
2D\	0.r	1d	2dd\]	2r
2F\	.	.	2a/	2a/
2C/	.	0e	2a/	2cc\
2A\	.	.	2cc\	2cc\
2c\	.	.	2cc\	2.g/
2c\	.	.	[2g/	.
.	.	.	.	4a/
=19	=19	=19	=19	=19
2G\	0.r	1d	4g/]	4b\
.	.	.	4a/	4cc\
2G\	.	.	2.b\	1dd
1B	.	1d	.	.
.	.	.	4a/	.
.	.	.	1g	4cc\
.	.	.	.	4b\
1A	.	1r	.	1cc
.	.	.	2f#i/	.
=20	=20	=20	=20	=20
0G	1.d	1r	0.g	0b
.	.	1.G	.	.
.	2B\	.	.	.
1r	2d\	.	.	1r
.	[2e\	2E/	.	.
=21	=21	=21	=21	=21
1r	2e\]	1G	0.r	0.r
.	1d	.	.	.
1r	.	2A/	.	.
.	4c\	1G	.	.
.	4B\	.	.	.
2r	1A	.	.	.
2D\	.	2F#i/	.	.
=22	=22	=22	=22	=22
2E\	1G	0G	0.r	0.r
1G	.	.	.	.
.	2r	.	.	.
2F\	2A/	.	.	.
2G\	2B\	1r	.	.
4F\	[2d\	.	.	.
4E\	.	.	.	.
=23	=23	=23	=23	=23
2D\	2d\]	0.r	2r	0.r
2E\	2c\	.	2e/	.
2D\	2d\	.	2f/	.
1F	4c\	.	1a	.
.	4B\	.	.	.
.	2A/	.	.	.
2E\	2B\	.	2g/	.
=24	=24	=24	=24	=24
2F\	2A/	0.r	2a/	1r
4E\	2.c\	.	4g/	.
4D\	.	.	4f/	.
2C/	.	.	2e/	2r
.	4B\	.	.	.
2E\	2G/	.	2g/	2g/
2D\	2d\	.	2f/	2a/
2C/	2e\	.	[2g/	[2cc\
=25	=25	=25	=25	=25
1GG	1d	0.G	2g/]	2cc\]
.	.	.	2g/	2b\
1.C	1c	.	2.e/	2cc\
.	.	.	.	4b\
.	.	.	4f/	4a/
.	1r	.	1g	2g/
2GG/	.	.	.	2b\
=26	=26	=26	=26	=26
2AA/	1r	0.E	1c	2a/
2.C/	.	.	.	2g/
.	2r	.	1r	1cc
4BB/	.	.	.	.
4AA/	2e\	.	.	.
4GG/	.	.	.	.
1AA	1e	.	1r	1cc
=27	=27	=27	=27	=27
0GG	2e\	0G	2.g/	0b
.	1d	.	.	.
.	.	.	4g/	.
.	.	.	2g/	.
.	2B\	.	2g/	.
1r	1c	1A	1f	1r
=28	=28	=28	=28	=28
0.r	1B	1G	0g	1r
.	2r	1G	.	1r
.	2e\	.	.	.
.	2e\	1E	2r	2.b\
.	2e\	.	2g/	.
.	.	.	.	4b\
=29	=29	=29	=29	=29
0.r	2e\	0G	2g/	2b\
.	1d	.	2g/	2b\
.	.	.	2g/	2b\
.	2B\	.	2g/	2b\
.	1c	1A	2e/	1a
.	.	.	2f/	.
=30	=30	=30	=30	=30
1r	0d	0G	0.g	1b
0G	.	.	.	2r
.	.	.	.	1b
.	1d	1r	.	.
.	.	.	.	2b\
=31	=31	=31	=31	=31
1C	1e	2r	0.r	1.cc
.	.	1G	.	.
2C/	2e\	.	.	.
1C	1e	2G/	.	4b\
.	.	.	.	4a/
.	.	2G/	.	2g/
4BB/	4d\	[2G/	.	2cc\
4AA/	4c\	.	.	.
=32	=32	=32	=32	=32
2GG/	2d\	2G/]	0.r	2b\
2C/	2e\	2E/	.	2.a/
2BB/	1d	1G	.	.
.	.	.	.	4g/
2GG/	.	.	.	1g
1D	1d	1A	.	.
.	.	.	.	2f#i/
=33	=33	=33	=33	=33
0GG	0B	1G	1d	0g
.	.	2r	2e/	.
.	.	2d\	2.g/	.
2r	1r	2d\	.	1r
.	.	.	4f/	.
[2G\	.	2B\	[2d/	.
=34	=34	=34	=34	=34
4G\]	0.r	2d\	2d/]	0.r
4F\	.	.	.	.
4E\	.	1e	1g	.
4D\	.	.	.	.
2C/	.	.	.	.
2D\	.	2.d\	2f/	.
1E	.	.	1g	.
.	.	4c#i\	.	.
.	.	2c#i\	.	.
=35	=35	=35	=35	=35
0.D	1A	0.d	0.f	1r
.	2B\	.	.	2r
.	2.d\	.	.	2a/
.	.	.	.	2a/
.	4c\	.	.	.
.	[2A/	.	.	2f/
=36	=36	=36	=36	=36
0.r	2A/]	0.r	0.r	2a/
.	2.d\	.	.	1b
.	4c\	.	.	.
.	4B\	.	.	2.a/
.	4A/	.	.	.
.	1B	.	.	.
.	.	.	.	4g#i/
.	.	.	.	2g#i/
=37	=37	=37	=37	=37
1D	2A/	[0.d	1f	2a/
.	2A/	.	.	2a/
2GG/	2G/	.	2g/	2b\
2D\	2A/	.	2f/	2a/
2GG/	2G/	.	2g/	2b\
[2G\	[2B\	.	[2d/	2g/
=38	=38	=38	=38	=38
2G\]	2B\]	0.d]	2d/]	2r
2D\	2A/	.	2a/	2f/
2G\	2G/	.	2b\	2g/
2D\	2A/	.	2a/	2f/
2GG/	2G/	.	2b\	2g/
[2D\	2A/	.	2a/	[2d/
=39	=39	=39	=39	=39
4D\]	2.d\	1B	2r	2d/]
4C/	.	.	.	.
4BB/	.	.	2d/	2.dd\
4AA/	4c\	.	.	.
2GG/	4B\	1d	2d/	.
.	4A/	.	.	4cc\
2GG/	2G/	.	2g/	4b\
.	.	.	.	4a/
2C/	2G/	[1e	2g/	2g/
2C/	2c\	.	[2e/	2g/
=40	=40	=40	=40	=40
2.AA/	2c\	1e]	4e/]	2cc\
.	.	.	8f/L	.
.	.	.	8g/J	.
.	2.A/	.	2.a/	2cc\
8BB/L	.	.	.	.
8C/J	.	.	.	.
2.D\	.	0d	.	2.a/
.	8B\L	.	4g/	.
.	8c\J	.	.	.
.	2.d\	.	4f/	.
4C/	.	.	4e/	8b\L
.	.	.	.	8cc\J
4BB/	.	.	2d/	2.dd\
4AA/	4c\	.	.	.
[2GG/	4B\	.	[2dd\	.
.	4A/	.	.	4cc\
=41	=41	=41	=41	=41
2GG/]	2G/	[0.dl	4dd\]	4b\
.	.	.	4cc\	4a/
1G	2.d\	.	4b\	1g
.	.	.	4a/	.
.	.	.	2b\	.
.	4c\	.	.	.
2GG/	2B\	.	1g	2g/
1D	1A	.	.	1a
.	.	.	2f#i/	.
=42	=42	=42	=42	=42
0.GGl	0.Gl	0.d]	0.gl	0.bl
!!LO:LB:i:g=z
=43||	=43||	=43||	=43||	=43||
*>B	*>B	*>B	*>B	*>B
!!section: Et incarnatus est
!!!OMD: Et incarnatus est
*M2/1	*M2/1	*M2/1	*M2/1	*M2/1
*met(C|)	*met(C|)	*met(C|)	*met(C|)	*met(C|)
0C	1G	[0G	0e	0g
.	[1c	.	.	.
=44	=44	=44	=44	=44
1C	1c]	0G_	1.e	1.g
1C	1c	.	.	.
.	.	.	2f/	2a/
=45	=45	=45	=45	=45
1GG	1B	0G]	1g	1b
1GG	1B	.	1g	1b
=46	=46	=46	=46	=46
0AA	0A	[0E	0c	0cc
=47	=47	=47	=47	=47
1r	1r	0E]	1r	1r
1C	1G	.	1e	1g
=48	=48	=48	=48	=48
1C	1c	[0G	1.e	1.g
1C	1c	.	.	.
.	.	.	2f/	2a/
=49	=49	=49	=49	=49
1GG	0d	0G]	1g	1b
1BB	.	.	1g	1b
=50	=50	=50	=50	=50
0AA	1c	0A	2c/	0cc
.	.	.	2f/	.
.	1c	.	2e/	.
.	.	.	[2a/	.
=51	=51	=51	=51	=51
0D	1r	0A	2a/]	1r
.	.	.	1g	.
.	1d	.	.	1a
.	.	.	2f#i/	.
=52	=52	=52	=52	=52
0GG	4d\	[0G	[0g	1b
.	4c\	.	.	.
.	4B\	.	.	.
.	4A/	.	.	.
.	1G	.	.	1dd
=53	=53	=53	=53	=53
1G	1r	0G]	0g]	4dd\
.	.	.	.	4cc\
.	.	.	.	4b\
.	.	.	.	4a/
4G\	1d	.	.	1g
4F\	.	.	.	.
4E\	.	.	.	.
4D\	.	.	.	.
=54	=54	=54	=54	=54
2.C/	1.e	0r	0r	2r
.	.	.	.	1cc
4D\	.	.	.	.
4E\	.	.	.	.
4F\	.	.	.	.
[2G\	4d\	.	.	[2b\
.	4c\	.	.	.
=55	=55	=55	=55	=55
2G\]	2B\	0r	2r	2b\]
4F\	1c	.	1cc	4a/
4E\	.	.	.	4g/
2F\	.	.	.	2a/
[2G\	2e\	.	[2b\	[2g/
=56	=56	=56	=56	=56
2G\]	2d\	0r	2b\]	2g/]
4F\	1c	.	4a/	1cc
4E\	.	.	4g/	.
2F\	.	.	2a/	.
[2G\	2e\	.	[2g/	[2b\
=57	=57	=57	=57	=57
2G\]	2d\	0r	2g/]	2b\]
4F\	2.f\	.	1cc	4a/
4E\	.	.	.	4g/
2F\	.	.	.	2a/
.	4e\	.	.	.
[2G\	4d\	.	[2b\	[2g/
.	4c\	.	.	.
=58	=58	=58	=58	=58
4G\]	2B\	1G	2b\]	2g/]
4F\	.	.	.	.
4E\	1e	.	4a/	1cc
4D\	.	.	4g/	.
1C	.	2E/	2a/	.
.	2e\	2E/	[2g/	2cc\
=59	=59	=59	=59	=59
1GG	1.d	1G	2g/]	2b\
.	.	.	4f/	1g
.	.	.	4e/	.
1D	.	1A	[1d	.
.	2B\	.	.	2f#i/
=60	=60	=60	=60	=60
0GG	0B	1G	1d]	1g
.	.	1G	1d	1g
=61	=61	=61	=61	=61
1r	1r	1r	1r	1r
[1C	[1c	[1G	[1e	[1g
=62	=62	=62	=62	=62
1C]	1c]	1G]	1e]	1g]
[1C	[1e	[1E	[1g	[1cc
=63	=63	=63	=63	=63
1C]	1e]	1E]	1g]	1cc]
[1GG	[1d	[1G	[1g	1b
=64	=64	=64	=64	=64
1GG]	1d]	1G]	1g]	[0dd
[1D	[1d	[1A	[1f#i	.
=65	=65	=65	=65	=65
1D]	1d]	1A]	1f#]	1dd]
1GG	1d	1G	1g	1b
=66	=66	=66	=66	=66
0GGl	0dl	0Gl	0gl	0bl
!!LO:LB:i:g=z
=67||	=67||	=67||	=67||	=67||
*>C	*>C	*>C	*>C	*>C
!!section: Crucifixus
!!!OMD: Crucifixus
*M2/1	*M2/1	*M2/1	*M2/1	*M2/1
*met(C|)	*met(C|)	*met(C|)	*met(C|)	*met(C|)
0r	1.d	0G	0r	0r
.	2B\	.	.	.
=68	=68	=68	=68	=68
0r	1c	1E	0r	1.g
.	1B	1G	.	.
.	.	.	.	2e/
=69	=69	=69	=69	=69
0r	2r	0A	0r	1f
.	2c\	.	.	.
.	2c\	.	.	1e
.	2A/	.	.	.
=70	=70	=70	=70	=70
2r	2B\	2G/	0r	2r
2G\	2B\	2d\	.	2b\
2G\	1G	2B\	.	2b\
2E\	.	2B\	.	2g/
=71	=71	=71	=71	=71
2F\	1r	1d	1r	2a/
2D\	.	.	.	2f/
[1C	1c	[1e	2r	1e
.	.	.	2g/	.
=72	=72	=72	=72	=72
1C]	2c\	1e]	2g/	0r
.	2c\	.	2e/	.
2r	2B\	1d	2f/	.
2G\	2B\	.	2d/	.
=73	=73	=73	=73	=73
2A\	0c	0r	1c	0r
1F	.	.	.	.
.	.	.	2r	.
2E\	.	.	2g/	.
=74	=74	=74	=74	=74
2F\	1A	0r	2a/	1r
1D	.	.	1f	.
.	1r	.	.	2r
2C/	.	.	2e/	2g/
=75	=75	=75	=75	=75
1F	0r	1d	2f/	2a/
.	.	.	1d	1f
1G	.	2d\	.	.
.	.	2B\	2g/	2e/
=76	=76	=76	=76	=76
1D	0r	2d\	2f/	2f/
.	.	2d\	2.a/	1d
1A	.	1e	.	.
.	.	.	4g/	.
.	.	.	2e/	2c#i/
=77	=77	=77	=77	=77
0D	2r	1d	1f	0d
.	2A/	.	.	.
.	2B\	2r	1d	.
.	[2B\	2d\	.	.
=78	=78	=78	=78	=78
0r	4B\]	1d	0r	2r
.	4A/	.	.	.
.	2d\	.	.	2a/
.	2G/	1B	.	2b\
.	[2d\	.	.	2b\
=79	=79	=79	=79	=79
0r	2d\]	1d	0r	2a/
.	4c\	.	.	1dd
.	4B\	.	.	.
.	1A	1e	.	.
.	.	.	.	2cc\
=80	=80	=80	=80	=80
0D	0r	1d	0r	2b\
.	.	.	.	1a
.	.	1d	.	.
.	.	.	.	4g/
.	.	.	.	4f/
=81	=81	=81	=81	=81
2A\	0r	0r	1r	0e
2A\	.	.	.	.
1A	.	.	2r	.
.	.	.	2e/	.
=82	=82	=82	=82	=82
1D	2r	0d	2a/	0r
.	2A/	.	2a/	.
2r	2d\	.	4a/	.
.	.	.	4g/	.
2D\	2d\	.	4f/	.
.	.	.	4e/	.
=83	=83	=83	=83	=83
2G\	4d\	1B	1d	0r
.	4c\	.	.	.
2G\	4B\	.	.	.
.	4A/	.	.	.
4G\	1G	1d	2r	.
4F\	.	.	.	.
4E\	.	.	2d/	.
4D\	.	.	.	.
=84	=84	=84	=84	=84
[0C	0r	[0e	2g/	2r
.	.	.	2g/	2e/
.	.	.	4g/	2g/
.	.	.	4f/	.
.	.	.	4e/	2g/
.	.	.	4d/	.
=85	=85	=85	=85	=85
0C_	1r	0e_	0c	4g/
.	.	.	.	4f/
.	.	.	.	4e/
.	.	.	.	4d/
.	2r	.	.	2c/
.	2c\	.	.	2a/
=86	=86	=86	=86	=86
0C]	2e\	0e]	0r	2cc\
.	2e\	.	.	2cc\
.	4e\	.	.	4cc\
.	4d\	.	.	4b\
.	4c\	.	.	4a/
.	4B\	.	.	4g/
=87	=87	=87	=87	=87
0D	2A/	1d	0r	2f/
.	2G/	.	.	1g
.	1A	1d	.	.
.	.	.	.	2f#i/
=88	=88	=88	=88	=88
1r	0G	0r	1r	0g
[1G	.	.	[1g	.
=89	=89	=89	=89	=89
1G]	1.B	1.d	1g]	1r
1G	.	.	1g	[1b
.	2B\	2d\	.	.
=90	=90	=90	=90	=90
1G	1B	1d	1g	2b\]
.	.	.	.	2b\
1G	1B	1d	[1g	1b
=91	=91	=91	=91	=91
0G	1d	1B	2g/]	1b
.	.	.	4f/	.
.	.	.	4e/	.
.	1d	1B	1d	1b
=92	=92	=92	=92	=92
1C	1c	0c	1e	1g
[1F	1F	.	[1f	[1a
=93	=93	=93	=93	=93
1F]	1.A	1c	1f]	1a]
1F	.	[1c	1f	1a
.	2A/	.	.	.
=94	=94	=94	=94	=94
1.F	2A/	2c\]	1.f	1.a
.	2A/	2c\	.	.
.	1A	2c\	.	.
2F\	.	2c\	2f/	2a/
=95	=95	=95	=95	=95
2D\	1F	0d	2f/	2a/
2D\	.	.	2f/	2a/
1G	1G	.	1d	1b
=96	=96	=96	=96	=96
1C	0r	2.c\	1e	2a/
.	.	.	.	1g
.	.	4B\	.	.
1D	.	1A	1d	.
.	.	.	.	2f#i/
=97	=97	=97	=97	=97
0r	2r	0G	2r	1g
.	2G/	.	2d/	.
.	2.E/	.	2.g/	1r
.	4F/	.	4a/	.
=98	=98	=98	=98	=98
0r	2G/	0r	2b\	2r
.	2G/	.	2g/	2b\
.	2.G/	.	2.g/	2.b\
.	4A/	.	4f/	4cc\
=99	=99	=99	=99	=99
0r	2B-\	0r	1d	2dd\
.	2B-i\	.	.	2dd\
.	2A/	.	1r	2cc\
.	2G/	.	.	2b\
=100	=100	=100	=100	=100
2r	1F	0r	2r	1a
2F\	.	.	2a/	.
2E\	1r	.	2g/	1r
2D\	.	.	2f/	.
=101	=101	=101	=101	=101
1C	2r	0r	1e	2r
.	2A/	.	.	2cc\
1r	2G/	.	1r	2b\
.	2F/	.	.	2a/
=102	=102	=102	=102	=102
2r	2E/	0r	2r	2g/
2D\	2F/	.	2f/	2a/
2C/	2F/	.	2e/	2a/
2BB/	2G/	.	2d/	2b\
=103	=103	=103	=103	=103
1AA	2A/	0r	1c	1cc
.	2c\	.	.	.
1FF	2c\	.	1f	2r
.	2c\	.	.	2cc\
=104	=104	=104	=104	=104
0C	2G/	0c	0e	2cc\
.	2A/	.	.	2cc\
.	2E/	.	.	2g/
.	[2A/	.	.	2a/
=105	=105	=105	=105	=105
0r	2A/]	1c	2r	2e/
.	1F	.	1f	1a
.	.	1c	.	.
.	2F/	.	2f/	2a/
=106	=106	=106	=106	=106
1r	2C/	0c	2e/	2g/
.	1F	.	1f	1a
2r	.	.	.	.
2A\	2F/	.	2c/	2cc\
=107	=107	=107	=107	=107
2G\	2G/	0r	2d/	2b\
2F\	2A/	.	2d/	1a
1E	1B	.	1e	.
.	.	.	.	2g#i/
=108	=108	=108	=108	=108
1AA	[0A	0c	1e	0a
2r	.	.	1r	.
[2F\	.	.	.	.
=109	=109	=109	=109	=109
2F\]	0A]	1c	2r	0r
2F\	.	.	1a	.
2F\	.	1c	.	.
2F\	.	.	2a/	.
=110	=110	=110	=110	=110
1C	0r	1c	2g/	0r
.	.	.	2e/	.
2r	.	1A	2f/	.
[2F\	.	.	[2a/	.
=111	=111	=111	=111	=111
2F\]	0r	2r	2a/]	0r
1E	.	1c	2g/	.
.	.	.	2e/	.
4D\	.	[2B\	2f/	.
4C/	.	.	.	.
=112	=112	=112	=112	=112
4D\	0r	2B\]	0d	0r
4C/	.	.	.	.
4BB/	.	1A	.	.
4AA/	.	.	.	.
1BB	.	.	.	.
.	.	2G#i/	.	.
=113	=113	=113	=113	=113
2AA/	2r	0A	0r	0r
1D	1F	.	.	.
2C/	2E/	.	.	.
=114	=114	=114	=114	=114
2D\	2F/	0B	0r	0r
1GG	1D	.	.	.
[2D\	[2F/	.	.	.
=115	=115	=115	=115	=115
2D\]	2F/]	1A	0r	0r
1C	2.E/	.	.	.
.	.	[1G	.	.
.	4D/	.	.	.
2BB/	2D/	.	.	.
=116	=116	=116	=116	=116
4C/	4E/	1G]	0r	1r
4BB/	4D/	.	.	.
4AA/	4C/	.	.	.
4GG/	4BB/	.	.	.
1AA	1C	1F#i	.	1a
=117	=117	=117	=117	=117
0GG	0D	0G	1r	2b\
.	.	.	.	2.dd\
.	.	.	1d	.
.	.	.	.	4cc\
.	.	.	.	4b\
.	.	.	.	4a/
=118	=118	=118	=118	=118
0r	0r	0r	2e/	2.g/
.	.	.	2.g/	.
.	.	.	.	4a/
.	.	.	.	2b\
.	.	.	4f/	.
.	.	.	4e/	[2cc\
.	.	.	4d/	.
=119	=119	=119	=119	=119
0r	2r	0r	2.c/	4cc\]
.	.	.	.	4b\
.	2.c\	.	.	4a/
.	.	.	4d/	4g/
.	.	.	2e/	4f/
.	4B\	.	.	4e/
.	4A/	.	[2f/	[2a/
.	4G/	.	.	.
=120	=120	=120	=120	=120
0r	2F/	0r	4f/]	2a/]
.	.	.	4e/	.
.	2G/	.	1d	1g
.	1A	.	.	.
.	.	.	2c/	2f#i/
=121	=121	=121	=121	=121
0G	2G/	2r	0d	[0g
.	1B	1d	.	.
.	2G/	2B\	.	.
=122	=122	=122	=122	=122
1G	1B	1d	0r	0g]
1C	1c	1e	.	.
=123	=123	=123	=123	=123
1G	2B\	2d\	2r	0r
.	2G/	2B\	2g/	.
2r	1B	1d	2g/	.
2G\	.	.	2g/	.
=124	=124	=124	=124	=124
2C/	1c	1e	0g	0r
2C/	.	.	.	.
1G	1B	1d	.	.
=125	=125	=125	=125	=125
2r	0r	2r	2r	2r
1G	.	2d\	2g/	2b\
.	.	2d\	2g/	2b\
2G\	.	2B\	[2g/	2g/
=126	=126	=126	=126	=126
2G\	0r	1d	2g/]	1b
2G\	.	.	2g/	.
1C	.	1e	1g	1cc
=127	=127	=127	=127	=127
2G\	0r	2d\	2g/	2b\
2G\	.	2d\	2g/	2b\
2G\	.	2d\	2g/	2b\
2G\	.	2B\	2g/	2g/
=128	=128	=128	=128	=128
2G\	0r	2d\	2g/	2b\
2G\	.	2d\	2g/	2b\
1c	.	1e	1g	1cc
=129	=129	=129	=129	=129
1G	1.B	[0d	1g	1b
[1G	.	.	[1b	[1dd
.	2B\	.	.	.
=130	=130	=130	=130	=130
2G\]	1B	0d]	2b\]	2dd\]
2G\	.	.	2a/	2cc\
2G\	1B	.	2g/	2b\
2G\	.	.	2g/	2b\
=131	=131	=131	=131	=131
2D\	1d	0r	1f	1a
1D	.	.	.	.
.	1d	.	2f/	2a/
[2G\	.	.	2g/	[2b\
=132	=132	=132	=132	=132
2G\]	1c	0r	2e/	2b\]
2F\	.	.	2f/	1a
1G	1B	.	2.d/	.
.	.	.	.	2g/
.	.	.	4e/	.
=133	=133	=133	=133	=133
1D	0A	0r	4f/	0a
.	.	.	4g/	.
.	.	.	1a	.
2r	.	.	.	.
2D\	.	.	4g/	.
.	.	.	4f/	.
=134	=134	=134	=134	=134
2C/	1.A	0r	2e/	2r
2.D\	.	.	2f/	1a
.	.	.	1d	.
4E\	.	.	.	.
4F\	2A/	.	.	4g/
4G\	.	.	.	4f/
=135	=135	=135	=135	=135
2A\	1A	0r	2c/	2e/
1D	.	.	1d	2f/
.	1A	.	.	1d
2D\	.	.	2f/	.
=136	=136	=136	=136	=136
2AA/	1A	0r	2e/	2c/
1D	.	.	2.f/	1d
.	1A	.	.	.
.	.	.	4e/	.
2D\	.	.	2d/	2f/
=137	=137	=137	=137	=137
2AA/	1A	0r	2c/	2e/
1D	.	.	2.d/	2.f/
.	1A	.	.	.
.	.	.	4e/	4e/
4C/	.	.	[2f/	2d/
4BB/	.	.	.	.
=138	=138	=138	=138	=138
0AA	0A	0r	2f/]	2c/
.	.	.	4e/	1d
.	.	.	4d/	.
.	.	.	1e	.
.	.	.	.	2c#i/
=139	=139	=139	=139	=139
2r	2r	0d	2d/	2d/
2D\	2A/	.	2d/	2d/
2D\	2A/	.	2f/	2a/
2D\	2A/	.	2f/	2a/
=140	=140	=140	=140	=140
2GG/	2G/	1.d	2g/	2b\
2GG/	2G/	.	2g/	2b\
1D	2F/	.	2a/	2a/
.	2d\	2B\	2d/	[2b\
=141	=141	=141	=141	=141
0r	2d\	1d	2.f/	4b\]
.	.	.	.	4a/
.	2d\	.	.	1dd
.	.	.	4g/	.
.	1A	1e	1a	.
.	.	.	.	2cc#i\
=142	=142	=142	=142	=142
*M3/1	*M3/1	*M3/1	*M3/1	*M3/1
*met(3)	*met(3)	*met(3)	*met(3)	*met(3)
1D	0.r	0.d	0.r	1dd
1F	.	.	.	1a
1G	.	.	.	1b
=143	=143	=143	=143	=143
1.A	1c	0.r	0.r	1.cc
.	1c	.	.	.
2G\	.	.	.	2b\
2F\	1c	.	.	2a/
2E\	.	.	.	2g/
=144	=144	=144	=144	=144
1.D	1d	0.r	1a	0f
.	1.d	.	1a	.
2C/	.	.	.	.
2BB/	.	.	1a	1r
2AA/	2c\	.	.	.
=145	=145	=145	=145	=145
1GG	2B\	0d	1b	0g
.	2A/	.	.	.
1GG	1G	.	1b	.
1D	1D	1d	1a	1f
=146	=146	=146	=146	=146
1GG	1B	1d	0g	1g
0D	0A	0d	.	0a
.	.	.	1f#i	.
=147	=147	=147	=147	=147
0GG	0d	0B	0g	0g
1r	1r	1r	1r	1r
=148	=148	=148	=148	=148
1C	1G	1c	1e	1g
1C	1G	1c	1e	1g
1C	1G	1c	1e	1g
=149	=149	=149	=149	=149
1C	1E	1c	1e	1a
0AA	0A	0c	0f	0cc
=150	=150	=150	=150	=150
1GG	1D	0d	1g	1b
0FF	1.F	.	1d	1.a
.	.	1c	[1f	.
.	2E/	.	.	2g/
=151	=151	=151	=151	=151
1GG	0D	1B	2f/]	0g
.	.	.	2e/	.
0D	.	0A	2d/	.
.	.	.	2c/	.
.	1A	.	1d	1f#i
=152	=152	=152	=152	=152
1.GG	1.B-i	0G	0d	0g
2AA/	2A/	.	.	.
2BB/	1G	1r	1r	1r
2C/	.	.	.	.
=153	=153	=153	=153	=153
0FF	0F	0c	1f	1a
.	.	.	1f	1a
1r	1r	[1c	1e	1g
=154	=154	=154	=154	=154
0F	0.r	1c]	1A	1a
.	.	0c	1a	1.cc
1E	.	.	1g	.
.	.	.	.	2b\
=155	=155	=155	=155	=155
1F	1F	0c	1f	1a
0C	1F	.	0cc	1a
.	1E	1r	.	1g
=156	=156	=156	=156	=156
1FF	1F	1c	1a	0.a
1.FF	1.A	1c	1.cc	.
.	.	1c	.	.
2GG/	2G/	.	2b\	.
=157	=157	=157	=157	=157
2AA/	1F	1c	1a	0.r
2BB/	.	.	.	.
0C	1F	0c	0g	.
.	1E	.	.	.
=158	=158	=158	=158	=158
0FF	0F	0.c	1f	0a
.	.	.	1f	.
1r	1r	.	1e	1g
=159	=159	=159	=159	=159
0F	1.A	0c	1f	1a
.	.	.	1.a	1.cc
.	2B-\	.	.	.
1E	1c	[1c	.	.
.	.	.	2g/	2b\
=160	=160	=160	=160	=160
1F	1F	1c]	0f	1a
0C	0G	0c	.	0g
.	.	.	1e	.
=161	=161	=161	=161	=161
1.D	0d	0A	0f	0f
2C/	.	.	.	.
2BB/	1r	1A	1d	1r
2AA/	.	.	.	.
=162	=162	=162	=162	=162
1GG	1.D	0B	0.d	0g
1GG	.	.	.	.
.	2E/	.	.	.
1D	1F	1A	.	1f
=163	=163	=163	=163	=163
1BB	0D	0G	0.r	1g
0AA	.	.	.	1a
.	1C	1F#i	.	1cc
=164	=164	=164	=164	=164
0GG	0.D	0G	0.r	1.b
.	.	.	.	2g/
1FF	.	1r	.	1a
=165	=165	=165	=165	=165
1GG	0.r	1.B	0.r	1.g
0D	.	.	.	.
.	.	2G/	.	2e/
.	.	1A	.	1f#i
=166	=166	=166	=166	=166
0GG	0.r	1.G	1.b	0g
.	.	2E/	2g/	.
1r	.	1F#i	1a	1r
=167	=167	=167	=167	=167
0.r	1.B-	0G	0g	0.r
.	2G/	.	.	.
.	1A	1r	1f#i	.
=168	=168	=168	=168	=168
1.BB	0G	0.r	0g	1.dd
2GG/	.	.	.	2b\
1AA	1F#i	.	1r	1cc
=169	=169	=169	=169	=169
0GG	0G	1.d	0.r	1.b
.	.	2B\	.	2g/
1FF#i	1r	1c	.	1a
=170	=170	=170	=170	=170
0GG	0.r	1.B	1.g	1.g
.	.	2G/	2e/	4a/
.	.	.	.	4b\
1r	.	1A	1f	1cc
=171	=171	=171	=171	=171
2.GG/	1.D	1.G	1g	1b
4AA/	.	.	.	.
2BB/	.	.	2g/	2g/
2C/	2E/	2E/	1c	1a
1AA	1C	1F	.	.
.	.	.	2c/	2cc\
=172	=172	=172	=172	=172
1GG	1D	1G	1g	1b
1D	1F	1F	1d	2b\
.	.	.	.	1a
1C	[1E	[1G	1e	.
.	.	.	.	2g/
=173	=173	=173	=173	=173
1E	2E/]	1G]	1c	0g
.	2C/	.	.	.
0D	1.F	0A	0d	.
.	.	.	.	1f#i
.	2D/	.	.	.
=174	=174	=174	=174	=174
0GG	1E	[0.Gl	1.B	[0.gl
.	1D	.	.	.
.	.	.	4c/	.
.	.	.	4d/	.
1C	1C	.	1e	.
=175	=175	=175	=175	=175
1BB	1D	0.G_	0d	0.g_
0C	0E	.	.	.
.	.	.	1c	.
=176	=176	=176	=176	=176
[0.GGl	[0.Dl	0.G_	0.d	0.g_
=177	=177	=177	=177	=177
0.GG]	0.D]	0.G]	0.dl	0.g]
==	==	==	==	==
*-	*-	*-	*-	*-
!!!RDF**kern: %=rational rhythm
!!!rscale-alt: 1/4
!!!RDF**kern: l=long note in original notation
!!!RDF**kern: i=editorial accidental
!!!ENC: Jesse Rodin; Victoria Chang 2011/04/03
!!!END: 2011/04/03/
!!!EED:	Jesse Rodin
!!!EEV:	2011/11/05/
!!attribution-level@Jos: 6 (very doubtful)
!!!ONB:	Translated from MusicXML and edited on 2011/11/02/ by Craig Sapp
!!muse2ps: T^@{OPR}^u^@{ONM}{. }@{OTL}^C^La Rue/Josquin?\n@{SCT}^i2I100v85,90,85,85,150c80Q16
